X:1
T:A Study in Double Notes (Thirds)
T:Carl Czerny 1791 - 1857 
%%score { 1 | 2 }
L:1/8
Q:1/4=120
M:2/4
K:C
V:1 treble nm="Piano"
V:2 bass 
V:1
"^Allegretto"!f! (!3!!5![eg]/!2!!4![df]/!1!!3![ce]/[df]/ [eg]/[df]/[ce]/[df]/) | %1
 .!3!!5![eg].!1!!2![eg].!1!!5![ec'].[ec'] | (!3!!5![eg]/[df]/[ce]/[df]/ [eg]/[df]/[ce]/[df]/ | %3
 !3!!5![eg]2 !1!!3![ce]2) | (!3!!5![df]/[ce]/[Bd]/[ce]/ [df]/[ce]/[Bd]/[ce]/) | %5
 .!3!!5![df].!1!!2![df].!1!!5![db].[db] | (!3!!5![df]/[ce]/[Bd]/[ce]/ [df]/[ce]/[Bd]/[ce]/ | %7
 !3!!5![df]2 !1!!3![Bd]2) | (!1!!3![ce]/!2!!4![df]/[ce]/[df]/ .!3!!5![eg]).!1!!3![ce] | %9
 !tenuto!!1!!2![Bd]4 | (!1!!3![ce]/!2!!4![df]/[ce]/[df]/ .!3!!5![eg]).!1!!3![ce] | %11
 !tenuto!!1!!2![Bd]4 | (!1!!3![ce]/[df]/[ce]/[df]/ .!3!!5![ce]).!1!!5![ec'] | %13
 .!1!!5![db].!1!!5![ca].!1!!5![Bg].!1!!4![A^f] | .[Bg].[Bd].[Bg].[Bd] | !tenuto![Bg]2 z2 :: %16
 (!3!!5![df]/[ce]/[Bd]/[ce]/ !3!!5![df]/[ce]/[Bd]/[ce]/ | %17
 !3!!5![df]/[ce]/[Bd]/[ce]/ !3!!5![df]/[ce]/[Bd]/[ce]/) | .!3!!5![df].!1!!2![df].!1!!5![db].[db] | %19
 !1!!5![gf']4 | (!3!!5![eg]/[df]/[ce]/[df]/ [eg]/[df]/[ce]/[df]/ | %21
 [eg]/[df]/[ce]/[df]/ [eg]/[df]/[ce]/[df]/) | .!2!!5![eg].!1!!2![eg].!1!!5![ec'].[ec'] | %23
 !tenuto!!1!!5![ge']3 !1!!5![ec'] | (!1!!3![fa]/[gb]/[fa]/[gb]/ .!3!!5![ac']).!1!!3![fa] | %25
 !tenuto!!2!!4![eg]4 | (!1!!3![fa]/[gb]/[fa]/[gb]/ .!3!!5![ac']).!1!!3![fa] | !tenuto!!2!!4![eg]4 | %28
 .!3!!5![fa].!1!!2![fa].!1!!5![af'].[af'] | .!1!!5![ge'].!1!!5![fd'].!1!!5![ec'].!1!!5![db] | %30
 .!1!!5![ec'].!1!!2![eg].[ec'].[eg] | !tenuto!!1!!5![ec']2 z2 :| %32
V:2
 !5!C,2 C2 | C,2 z2 | C,2 C2 | (!5!C,!4!E,!2!G,!1!C) | G,,2 G,2 | G,,2 z2 | G,,2 G,2 | %7
 (G,,B,,D,G,) | !3!C,3 (!5!C,/!3!E,/ | G,/^F,/G,/F,/ G,/=F,/E,/D,/) | !3!C,3 (!5!C,/!3!E,/ | %11
 G,/^F,/G,/F,/ G,/=F,/E,/D,/) | !5!B,,2 !2!C,2 | !1!D,2 !5!D,,2 | !2!G,,2 !4![G,B,D]2 | %15
 !tenuto![G,B,D]2 z2 ::!f! (G,,2 G,2 | !2!D,2 !4!B,,2) | G,,2 !1!G,2 | (!2!G,!1!D!2!B,!3!G,) | %20
 (C,2 C2 | G,2 !4!E,2) | !5!C,2 C2 | (!5!C,!4!E,!2!G,!1!C) | !3!F,3 !4!F,/!2!A,/ | %25
 !1!C/!2!B,/C/B,/ C/G,/E,/C,/ | !3!F,3 !4!F,/!2!A,/ | !1!C/!2!B,/C/B,/ C/G,/E,/C,/ | %28
 !3!F,2 !2!F,2 | G,2 !5!G,,2 | !2!C,2 !1!!3!!5![C,E,G,]2 | !tenuto![C,E,G,]2 z2 :| %32

